www/assets/icons/format_line_spacing.svg

<svg width="24" height="24" viewBox="0 0 24 24" xmlns="http://www.w3.org/2000/svg" fill='currentColor'><path d="M6.25 7H8.75L5.25 3.5L1.75 7H4.25V17H1.75L5.25 20.5L8.75 17H6.25V7ZM10.25 5V7H22.25V5H10.25ZM10.25 19H22.25V17H10.25V19ZM10.25 13H22.25V11H10.25V13Z"/></svg>

<svg xmlns="http://www.w3.org/2000/svg" width="24" height="24" viewBox="0 0 24 24" fill='currentColor'><path d="M6.25 7h2.5l-3.5-3.5L1.75 7h2.5v10h-2.5l3.5 3.5 3.5-3.5h-2.5zm4-2v2h12V5zm0 14h12v-2h-12zm0-6h12v-2h-12z"/></svg>
